icon/fa/hryvnia-sign.svg

<svg xmlns="http://www.w3.org/2000/svg" viewBox="0 0 384 512"><!--! Font Awesome Free 6.1.2 by @fontawesome - https://fontawesome.com License - https://fontawesome.com/license/free (Icons: CC BY 4.0, Fonts: SIL OFL 1.1, Code: MIT License) Copyright 2022 Fonticons, Inc.--><path d="M115.1 120.1c-12.9 11.9-33.05 9.7-44.09-5-11.04-12.9-8.8-33.05 5-44.09l5.93-4.74C109.7 44.08 144.1 32 179.6 32H223c62.4 0 113 50.59 113 112.1 0 11.5-1.5 22-4.3 31.9H352c17.7 0 32 14.3 32 32s-14.3 32-32 32h-67.8c-1.7 1.1-3.4 2.1-5.1 3.1L228.5 272H352c17.7 0 32 14.3 32 32s-14.3 32-32 32H123.1c-7.1 8.6-11.1 19.5-11.1 31 0 27.1 21.9 49 48.1 49h44.3c20.9 0 41.3-7.1 57.7-20.2l5.9-4.8c13.8-11.9 33.9-8.8 44.1 5 11.9 13.8 9.7 33.9-5 44.1l-5 5.6c-27.8 22.2-62.2 34.3-97.7 34.3h-44.3C98.59 480 48 429.4 48 367c0-10.6 1.49-21.1 4.33-31H32c-17.67 0-32-14.3-32-32s14.33-32 32-32h67.82c1.68-1.1 3.38-2.1 5.08-3.1l50.6-28.9H32c-17.67 0-32-14.3-32-32s14.33-32 32-32h228.9c6.2-8.6 11.1-19.5 11.1-31.9 0-26.2-21.9-48.1-49-48.1h-43.4c-20.9 0-41.3 7.1-57.7 20.2l-6.8 3.9z"/></svg>

<svg xmlns="http://www.w3.org/2000/svg" viewBox="0 0 384 512" height="1em" width="1em">
<!--! Font Awesome Free 6.1.2 by @fontawesome - https://fontawesome.com License - https://fontawesome.com/license/free (Icons: CC BY 4.0, Fonts: SIL OFL 1.1, Code: MIT License) Copyright 2022 Fonticons, Inc.-->
  <path d="M115.1 120.1C102.2 132 82.05 129.8 71.01 115.1C59.97 102.2 62.21 82.05 76.01 71.01L81.94 66.27C109.7 44.08 144.1 32 179.6 32H223C285.4 32 336 82.59 336 144.1C336 155.6 334.5 166.1 331.7 176H352C369.7 176 384 190.3 384 208C384 225.7 369.7 240 352 240H284.2C282.5 241.1 280.8 242.1 279.1 243.1L228.5 272H352C369.7 272 384 286.3 384 304C384 321.7 369.7 336 352 336H123.1C116 344.6 112 355.5 112 367C112 394.1 133.9 416 160.1 416H204.4C225.3 416 245.7 408.9 262.1 395.8L268 391C281.8 379.1 301.9 382.2 312.1 396C324 409.8 321.8 429.9 307.1 440.1L302.1 445.7C274.3 467.9 239.9 480 204.4 480H160.1C98.59 480 48 429.4 48 367C48 356.4 49.49 345.9 52.33 336H32C14.33 336 0 321.7 0 304C0 286.3 14.33 272 32 272H99.82C101.5 270.9 103.2 269.9 104.9 268.9L155.5 240H32C14.33 240 0 225.7 0 208C0 190.3 14.33 176 32 176H260.9C267.1 167.4 272 156.5 272 144.1C272 117.9 250.1 96 223 96H179.6C158.7 96 138.3 103.1 121.9 116.2L115.1 120.1z"/>
</svg>
